X: 43262
T: Woman Of The House, The
R: reel
M: 4/4
K: Gmajor
e||dBBA BcBA|GA (3Bcd eBdB|ez (3AAA ABcA|dgbg ageg|
dBBA ~B3A|GB ~B2 eBdB|GABG ABdg|bgag efge|
(3dcB (3cBA ~ B3A|GA (3Bcd ez dA|EFGB ABce|dgbg ageg|
dBBA ~B3A|GA (3Bcd eddB|~G3 B ABdg|bgag efgf||
gafg ed (3Bcd|efgf edBd|gBfB eBdg|ea (3aaa eaaf|
g3 f eB ~B2|gabg (3efe dB|GFGB ABdg|bgag efgf|
gafd ed (3Bcd|efgf edBd|gBfB eBdg|ea (3aaa eaaf|
g3 f eB ~B2|gabg (3efe dB|~G3 B ABdg|bgag eage||

